X: 14
T:Drops of Brandy
M:9/8
L:1/8
R:Slip Jig
K:Amix
"A"e2d cAc cAc|"A"e2d cAc "G"d2B|"A"e2d cAc cAc|"G"dcd B2c dcB:|
|:"A"Ace aec aec|"A"Ace aec "G"dcB|"A"Ace aec aec|"G"dcd B2c dcB:||
